X:2095
T:Greensleeves
A:North-West
M:6/8
O:England
R:Jig
Z:Richard Robinson 
%%TUNEURL: http://www.leeds.ac.uk/music/Info/RRTuneBk/gettune/000004d0.html
%%ID:000004d0
K:A dorian
B|\
c2c cde| dBG GAB| c2A ABc| BEE E2B|\
c2c cde| dBG GAB| cBA BA^G| A3 A2::
f|\
g2g g=fe| dBG G2^g| a2a aba| ^gee e2f|\
gag g=fe| dBG GAB| cBA BA^G| A3 A2:|
